!!!COM: Henri Reber
!!!CNT: Francais
!!!TXO: Francais
!!!OTL: Le Jardin
!!!LYR: Alexandre Dumas
!!!ODT: 1851/
!!!ENC: Jacob Pegg
!!!YOR: Romantic French Song 1830-1870, David Tunley, ed., New York: Garland Publishing, Inc., 1995, vol. 3
!!NB: Vocal melody and text only encoded.
!!NB: First instance of identical melodic material only encoded.
**kern	**silbe
*clef G2	*
*k[f#]	*
*M3/4	*
=5	=5
4r	.
4r	.
8r	.
{8dd	Cueil-
=6	=6
[(4dd	-lons
16dd]	|
16ee)	|
(16cc	la
16dd)	|
(16b	pa-
16cc)	|
(16a	-que-
16b)	|
=7	=7
4g	-ret-
4d}	-te,}
8r	.
{8dd	{La
=8	=8
[4dd	rose
16dd]	|
16ee	|
(16cc	et
16dd)	|
(16b	le
16cc)	|
(16a	jas-
16b)	|
=9	=9
4g}	-min,}
4r	.
{8g	{Au
8a	jar-
=10	=10
2b	-din
(16b	d'a-
16cc	|
16b	|
16a)	-mou-
=11	=11
4a	-ret-
8g}	-te,}
8r	.
{8a	{Au
8b	jar-
=12	=12
2a	-din
(16a	d'a-
16b	|
16a	|
16g)	-mou-
=13	=13
4g	-ret-
4f}	-te,}
4r	.
=14	=14
{(4a	{Le
4dd)	|
4dd	plus
=15	=15
(4ee	beau.
4dd)	|
(12dd	le
16eeq	|
16ddq	|
12cc#)	|
12b	plus
=16	=16
2a	beau
8b	des
8cc#	jar-
=17	=17
[2dd	-dins,
8dd]}	|}
{8dd	{Cueil-
=18	=18
[(4dd	-lons
16dd]	|
16ee)	|
(16cc	la
16dd)	|
(16b	pa-
16cc)	|
(16a	-que-
16b)	|
=19	=19
4g	-ret-
4d}	-te,}
8r	.
{8dd	{La
=20	=20
([4dd	rose
16dd]	|
16ee)	|
(16cc	et
16dd)	|
(16b	le
16cc)	|
(16a	jas-
16b)	|
=21	=21
4g}	min,}
4r	.
{8b	{Au
8cc	jar-
=22	=22
(2dd	-din
16dd	d'a-
16ee	|
16dd	|
16b)	-mou-
=23	=23
4dd	-ret-
8cc}	-te,}
8r	.
{8cc	{Au
8cc	jar-
=24	=24
(4b	-din
4ee)	|
(16b	d'a-
16dd	|
16dd	|
16b)	-mou-
=25	=25
4b	-ret-
8b}	-te,}
8r	.
{(12a	Le
12b)	|
12a	plus
=26	=26
([4.dd	beau
24dd]	|
24ee	|
24dd)	|
8cc	des
(24cc	jar-
24dd	|
24cc)	|
=27	=27
2b}	-dins.}
4r	.
=28	=28
{(4ee	{Le
4a)	|
4a#	plus
=29	=29
(4.b	beau
8ee)	|
8dd	le
8b	plus
=30	=30
(4.dd	beau
8cc#)	|
8ccn	des
8a	jar-
=31	=31
2g}	-dins.}
4r	.
=32	=32
2.r	.
=33	=33
4r	.
4r	.
8r	.
{8b	{Ce-
=34	=34
4.b	-lui
(16a	qui
16b)	|
8cc	le
(16b	cul-
16a)	|
=35	=35
(8.b	-ti-
16a)	|
8g}	-ve}
8r	.
{4b	{Est
=36	=36
8ee	un
8dd	en-
4cc	-fant
(24cc	ai-
24dd	|
24cc	|
24a	|
24b	|
24cc)	|
=37	=37
2b}	-le/}
{8g	{Dont
8a	ma
=38	=38
(4..b	me\-
32a	|
32b)	|
8cc	-re
(24cc	crain-
24b	|
24a)	|
=39	=39
(8.b	-ti-
16ee)	|
4b}	-ve}
{4cc#	{Ne
=40	=40
4.dd	m'a
(24dd	ja-
24ee	|
24dd)	|
8cc#	-mais
(24cc#	par-
24dd	|
24cc#)	|
=41	=41
2b}	-le/.}
4r	.
=42	=42
2.r	.
=43	=43
2.r	.
=44	=44
{4b	{Ce
8b	jar-
8b	-din-
8b	-ier
8ee	fi-
=45	=45
(2dd	-de\-
4a)}	-le,}
=46	=46
{4a	{Ce
8a	jar-
8a	-din-
8a	-ier
8dd	fi-
=47	=47
(2dd	-de\-
8g)}	-le}
{8a	{Est
=48	=48
4.b	roi
8a	dans
8b	ce
8cc	se/-
=49	=49
4.a;}	-jour!}
8r;	.
{8g	{Et
8a	l'on
=50	=50
(4.b	dit
8dd)	|
8cc	qu'il
8ee	s'ap-
=51	=51
4dd	-pel-
8b}	-le}
8r	.
{8g	{Qu'il
8a	s'ap-
=52	=52
(4.b	-pel-
8dd)	|
8cc	-le
8a	l'a-
=53	=53
4.b}	-mour!}
8r	.
{(8b	{l'a-
8ee)	|
=54	=54
(2.dd#	-mour!
=55	=55
2ddn)}	|}
!!3rd verse deemed sufficiently modified to encode
8r	.
{8dd	{Cueil-
=56	=56
[(4dd	-lons
16dd]	|
16ee)	|
(16cc	la
16dd)	|
(16b	pa-
16cc)	|
(16a	-que-
16b)	|
=57	=57
4g	-ret-
4d}	-te,}
8r	.
{8d	{La
=58	=58
[(4dd	rose
16dd]	|
16ee)	|
(16cc	et
16dd)	|
(16b	le
16cc)	|
(16a	jas-
16b)	|
=59	=59
4g}	-min,}
4r	.
{8b	{Au
8cc	jar-
=60	=60
(4dd	-din
4gg)	|
(16dd	d'a-
16ee	|
16dd)	|
16b	-mou-
=61	=61
4dd	-ret-
8cc}	-te,}
8r	.
{8cc	{Au
8cc	jar-
=62	=62
(4b	-din
4ee)	|
(16b	d'a-
16dd	|
16cc	|
16b)	-mou-
=63	=63
4b	-ret-
8a}	-te,}
8r	.
{(12a	{Le
12b)	|
12a	plus
=64	=64
([4.dd	beau
24dd]	|
24ee	|
24dd)	|
8cc	des
(24cc	jar-
24dd	|
24cc)	|
=65	=65
2b}	-dins}
4r	.
=66	=66
{(4b	{Le
4a)	|
4ee	plus
=67	=67
2.dd	beau
=68	=68
2dd	des
(16cc#q	jar-
16eeq	|
4dd)	|
=69	=69
2g}	-dins.}
4r	.
*-	*-
